!!!Genre:	Skotshne
!!!Mode:	Minor
!!!Listening/dance:	listening
!!!:	*B-:
!!!One_Mode:	no
**kern
*thru
*I"P1
*clefG2
*k[b-e-]
*g:
*M2/4
*>A
=1
8gL
16ggL
(16ff#XJJ
16ggLL)
(16dd
16ee-)
(16ccJJ
=2
16ddLL)
(16b-
16cc)
(16aJJ
8.b-L)
(16ddJk
=3
16ccLL)
(16b-
16a)
(16b-JJ
16ccLL)
16dd
16ee-
(16ffJJ
=4
8.ccL)
16b-Jk
(16b-LL
16a)
(16a
16gJJ)
=5
16gLL
(16d
16b-)
(16gJJ
16ddLL)
(16b-
16gg)
(16ddJJ
=6
16bb-LL)
(16aa
16gg)
(16ff#XJJ
16ggLL)
(16ffn
16ee-)
16ddJJ
=7
16ccLL
(16bn
16cc)
(16ddJJ
16ee-LL)
(16dd
16cc)
16bJJ
=8
4.cc
8cc
=9
(16ccLL
16ee-)
16aa'
16cc'JJ
(16b-LL
16dd)
16gg'
16b-'JJ
=10
(16aLL
16cc)
16ff'
16ee-'JJ
(16ddLL
16cc)
16b-
16aJJ
=11
16f#XLL
(16d
16f#)
(16aJJ
16ddLL)
(16cc
16b-)
(16aJJ
=12
4.g)
*>B
(8dd
=13!|:
4bb-^)
(16bb-LL
16aa)
16gg
16bb-JJ
=14
(16aaLL
16gg)
16ff#X
16aaJJ
4gg
=15
(16ddLL
16gg)
(16gg
16ffnJJ)
(16ffLL
16ee-)
(16ee-
16ddJJ)
=16
(16ddLL
16cc)
(16cc
16bnJJ)
4cc
=17
((8qe-/
16ee-LL)
16dd)
(16dd
16ccJJ)
(16ccLL
16b-X)
(16b-
16aJJ)
=18
((8qa/
16aaLL)
16gg)
(16gg
16ff#XJJ)
(16ee-LL
16dd)
(16cc
16b-JJ)
=19
16aLL
(16d
16f#X)
(16aJJ
16ddLL)
(16cc
16b-)
16aJJ
*>B1
=20
4.g
8dd
*>B2
=21:|!
4.g
8r
*>bM
*B-:
!LO:TX:a:i:t=Bb-major
=22!|:
*>C
16B-LL
(16b-
16a)
16b-JJ
16dd'LL
(16b-
16a)
16b-'JJ
=23
16ff'LL
(16b-
16a)
16b-'JJ
16dd'LL
(16b-
16a)
16b-'JJ
=24
16b-'LL
16ff'
16een'
16ff'JJ
16ee-X'LL
16ff'
16dd'
16ff'JJ
=25
16dd-X'LL
16ff'
16cc'
16ff'JJ
16bn'LL
16ff'
16b-X'
16ff'JJ
=26
16aLL
(16f
16g)
(16aJJ
16b-LL)
(16cc
16ddn)
(16ee-JJ
=27
16ffLL)
(16gg
16aa-X)
(16ggJJ
16ffLL)
(16ee-
16dd)
(16ccJJ
*>C1
=28
(16b-LL)
16f)
(16f
16b-JJ)
(16b-LL
16a-X)
(16a-
16gJJ)
=29
4.g
8r
*>C2
=30:|!
16aLL
(16aa
16gg)
(16ffJJ
16ee-LL)
(16cc
16a)
16ccJJ
=31
(16ccLL
16b-JJ)
4b-
8r
*>eM
*g:
!LO:TX:a:i:t=G-minor
=32!|:
*>D
16dLL
(16dd
16ee-)
(16e-JJ
16fLL)
(16ff
16gg)
(16gJJ
=33
16aLL)
(16aa
16bb-)
(16b-JJ
16ccLL)
(16ccc
16ddd)
16ddJJ
=34
16ddLL
16ddd
16ee-
16eee-JJ
16ddLL
16ddd
16cc
16cccJJ
=35
16ccLL
16ccc
16dd
16dddJJ
16ccLL
16ccc
16b-
16bb-JJ
=36
16b-LL
16bb-
16cc
16cccJJ
16b-LL
16bb-
16a
16aaJJ
=37
8ggL
(48GLL
48B-
48d
48g
48b-
48ddJJJ)
8gg
8r
==
*-
